X:105
T: Pretty Maid of Bulgaden
S: "The Roche Collection of Traditional Irish Music" [I/65/166]
N: Version of "Dunmore Lasses"
L: 1/8
M: 4/4
R: reel
K: G
EFGA BE (3EEE | D2 (3FED AD (3FED | EFGA BE (3EEE | BdAc BE (3FED :|
g2 ef g2 fg | afdf afdf | gfef gfed | BdAc BE (3FED |
g2 ef g2 fg | afdf afdf | gfaf gfed | BdAc BE (3FED |]
